X:970
T: Rockfield Cottages
T: Teach\'in\'i Ghort na gCloch
S: B.Breathnach:"Ceol Rince na hEireann" IV/102
Z: B.Black
L: 1/8
M: 4/4
R: reel
K: G
G3c BAGB|dgfa gedc|(3BdB Ac BGAF|DFAF GFED|
G3c BAGB|dgfa gedc|(3BdB Ac BGAF|DFAF G4 :|
g2 (3agf gdBd|egfa gfed|ecAc dBGB|cBAG FAFD|
g2 (3agf gdBd|egfa g3d|Bdef gfag|bgef (3ggg gf|
(3efg dg Bgdg|egfa gfed|ecAc dBGB|cBAG FAFD|
D3c BAGB|dgfa gedc|(3BdB Ac BGAF|DFAF G4 ||
